Origami/24x24/apps/steam.svg

<svg width="24" height="24" version="1" xmlns="http://www.w3.org/2000/svg">
 <path d="M 22,12 A 10,10 0 0 1 12,22 10,10 0 0 1 2,12 10,10 0 0 1 12,2 10,10 0 0 1 22,12 Z" style="fill:#324b6c"/>
 <path d="M 14.5,5.5 A 3.5,3.5 0 0 0 11,9 3.5,3.5 0 0 0 11.002,9.027344 L 8.6777344,12.582031 A 3,3 0 0 0 8,12.5 3,3 0 0 0 6.6933594,12.802734 L 2.2675781,10.248047 A 10,10 0 0 0 2,12.5 10,10 0 0 0 2.072266,13.599609 l 2.9355469,1.69336 A 3,3 0 0 0 5,15.5 a 3,3 0 0 0 3,3 3,3 0 0 0 3,-3 3,3 0 0 0 -0.0332,-0.408203 l 3.638672,-2.597656 A 3.5,3.5 0 0 0 18,9 3.5,3.5 0 0 0 14.5,5.5 Z m 0,1 A 2.5,2.5 0 0 1 17,9 2.5,2.5 0 0 1 14.5,11.5 2.5,2.5 0 0 1 12,9 2.5,2.5 0 0 1 14.5,6.5 Z m 0,1 A 1.5,1.5 0 0 0 13,9 1.5,1.5 0 0 0 14.5,10.5 1.5,1.5 0 0 0 16,9 1.5,1.5 0 0 0 14.5,7.5 Z m -6.5,6 a 2,2 0 0 1 2,2 2,2 0 0 1 -2,2 2,2 0 0 1 -1.9589844,-1.611328 l 0.7050782,0.408203 c 0.7196671,0.4155 1.6333281,0.170839 2.0488281,-0.548828 0.4155,-0.719667 0.170839,-1.633328 -0.5488281,-2.048828 L 7.9082031,13.503906 A 2,2 0 0 1 8,13.5 Z" style="opacity:.2"/>
 <path d="m12 2c-5.5395 0-9.999 4.46-9.999 10 0 0.08386-2e-3 0.16664 0 0.25 0.1321-5.423 4.5435-9.75 9.999-9.75s9.867 4.3268 9.999 9.75c2e-3 -0.08335 0-0.16614 0-0.25 0-5.54-4.459-10-9.999-10z" style="fill:#ffffff;opacity:.12"/>
 <path d="m12 22.5c-5.5395 0-9.999-4.46-9.999-10 0-0.08386-2e-3 -0.16664 0-0.25 0.1321 5.423 4.5435 9.75 9.999 9.75s9.867-4.3268 9.999-9.75c2e-3 0.08335 0 0.16614 0 0.25 0 5.54-4.4596 10-9.999 10z" style="opacity:.2"/>
 <path d="M 14.5,5 A 3.5,3.5 0 0 0 11,8.5 3.5,3.5 0 0 0 14.5,12 3.5,3.5 0 0 0 18,8.5 3.5,3.5 0 0 0 14.5,5 Z m 0,1 A 2.5,2.5 0 0 1 17,8.5 2.5,2.5 0 0 1 14.5,11 2.5,2.5 0 0 1 12,8.5 2.5,2.5 0 0 1 14.5,6 Z" style="fill:#ffffff"/>
 <path d="m8 12a3 3 0 0 0 -3 3 3 3 0 0 0 3 3 3 3 0 0 0 3 -3 3 3 0 0 0 -3 -3zm0 1a2 2 0 0 1 2 2 2 2 0 0 1 -2 2 2 2 0 0 1 -2 -2 2 2 0 0 1 2 -2z" style="fill:#ffffff"/>
 <circle cx="14.5" cy="8.5" r="1.5" style="fill:#ffffff"/>
 <path d="m2.2675781 9.7480469a10 10 0 0 0 -0.2675781 2.2519531 10 10 0 0 0 0.0722656 1.099609l4.6738282 2.697266c0.7196671 0.4155 1.6333281 0.170839 2.0488281-0.548828s0.170839-1.633328-0.5488281-2.048828l-5.9785157-3.4511721z" style="fill:#ffffff"/>
 <path transform="rotate(-47.05376)" d="m-3.4901595 14.680308 6.5419485-1.127206-1.3500791 0.733889-0.93015716 2.067 0.66925446 1.917117 1.408256 0.935215-6.7464383-1.377266 0.9973373-1.863986z" style="fill:#ffffff"/>
</svg>

<svg xmlns="http://www.w3.org/2000/svg" width="24" height="24" version="1">
 <path style="fill:#324b6c" d="M 22,12 A 10,10 0 0 1 12,22 10,10 0 0 1 2,12 10,10 0 0 1 12,2 10,10 0 0 1 22,12 Z"/>
 <path style="opacity:0.2" d="M 14.5,5.5 A 3.5,3.5 0 0 0 11,9 3.5,3.5 0 0 0 11.002,9.027344 L 8.6777344,12.582031 A 3,3 0 0 0 8,12.5 3,3 0 0 0 6.6933594,12.802734 L 2.2675781,10.248047 A 10,10 0 0 0 2,12.5 10,10 0 0 0 2.072266,13.599609 l 2.9355469,1.69336 A 3,3 0 0 0 5,15.5 a 3,3 0 0 0 3,3 3,3 0 0 0 3,-3 3,3 0 0 0 -0.0332,-0.408203 l 3.638672,-2.597656 A 3.5,3.5 0 0 0 18,9 3.5,3.5 0 0 0 14.5,5.5 Z m 0,1 A 2.5,2.5 0 0 1 17,9 2.5,2.5 0 0 1 14.5,11.5 2.5,2.5 0 0 1 12,9 2.5,2.5 0 0 1 14.5,6.5 Z m 0,1 A 1.5,1.5 0 0 0 13,9 1.5,1.5 0 0 0 14.5,10.5 1.5,1.5 0 0 0 16,9 1.5,1.5 0 0 0 14.5,7.5 Z m -6.5,6 a 2,2 0 0 1 2,2 2,2 0 0 1 -2,2 2,2 0 0 1 -1.9589844,-1.611328 l 0.7050782,0.408203 c 0.7196671,0.4155 1.6333281,0.170839 2.0488281,-0.548828 0.4155,-0.719667 0.170839,-1.633328 -0.5488281,-2.048828 L 7.9082031,13.503906 A 2,2 0 0 1 8,13.5 Z"/>
 <path style="opacity:0.12;fill:#ffffff" d="M 12,2 C 6.4605,2 2.001,6.46 2.001,12 c 0,0.08386 -0.002,0.16664 0,0.25 C 2.1331,6.827 6.5445,2.5 12,2.5 c 5.4555,0 9.867,4.3268 9.999,9.75 0.002,-0.08335 0,-0.16614 0,-0.25 C 21.999,6.46 17.54,2 12,2 Z"/>
 <path style="opacity:0.2" d="m 12,22.5 c -5.5395,0 -9.999,-4.46 -9.999,-10 0,-0.08386 -0.002,-0.16664 0,-0.25 C 2.1331,17.673 6.5445,22 12,22 c 5.4555,0 9.867,-4.3268 9.999,-9.75 0.002,0.08335 0,0.16614 0,0.25 0,5.54 -4.4596,10 -9.999,10 z"/>
 <path style="fill:#ffffff" d="M 14.5,5 A 3.5,3.5 0 0 0 11,8.5 3.5,3.5 0 0 0 14.5,12 3.5,3.5 0 0 0 18,8.5 3.5,3.5 0 0 0 14.5,5 Z m 0,1 A 2.5,2.5 0 0 1 17,8.5 2.5,2.5 0 0 1 14.5,11 2.5,2.5 0 0 1 12,8.5 2.5,2.5 0 0 1 14.5,6 Z"/>
 <path style="fill:#ffffff" d="M 8 12 A 3 3 0 0 0 5 15 A 3 3 0 0 0 8 18 A 3 3 0 0 0 11 15 A 3 3 0 0 0 8 12 z M 8 13 A 2 2 0 0 1 10 15 A 2 2 0 0 1 8 17 A 2 2 0 0 1 6 15 A 2 2 0 0 1 8 13 z"/>
 <circle style="fill:#ffffff" cx="14.5" cy="8.5" r="1.5"/>
 <path style="fill:#ffffff" d="M 2.2675781 9.7480469 A 10 10 0 0 0 2 12 A 10 10 0 0 0 2.0722656 13.099609 L 6.7460938 15.796875 C 7.4657609 16.212375 8.3794219 15.967714 8.7949219 15.248047 C 9.2104219 14.52838 8.9657609 13.614719 8.2460938 13.199219 L 2.2675781 9.7480469 z"/>
 <path style="fill:#ffffff" d="m -3.4901595,14.680308 6.5419485,-1.127206 -1.3500791,0.733889 -0.93015716,2.067 0.66925446,1.917117 1.408256,0.935215 -6.7464383,-1.377266 0.9973373,-1.863986 z" transform="rotate(-47.05376)"/>
</svg>
